X:1
T:There’s a Friend That Abides
T:Hubert Platt Main
T:There’s a Friend That Abides
T:Public Domain
T:Public Domain
C:Hubert Platt Main
Z:Public Domain
%%score ( 1 2 ) ( 3 4 )
L:1/8
M:4/4
K:Ab
V:1 treble 
V:2 treble 
V:3 bass 
V:4 bass 
V:1
 [CA][DB] | [Ec]2 [CB][CA] [CE]2 [CF]>[CA] | [DG]6 [EB]>[Ec] | [Ed]2 [Dc][DB] [DE]2 [DB]2 | %4
w: 1.~There’s a|friend that a- bides ev- er-|more, And that|friend is the Lord, my|
w: 2.~There’s a|friend that a- bides ev- er-|more, And I|praise Him with loud ac-|
w: 3.~There’s a|love that is strong as the|hills That en-|cir- cle His throne a-|
w: 4.~There’s a|friend that a- bides ev- er-|more, And a|friend that I long to|
 (C2 E4) [Ec][Ed] | [Ee]2 [Ed][Ec] [DF]2 [FB][Fc] | [Fd]2 [Dc][DB] [CE]2 [EA][=EG] | %7
w: king; * Of the|I re- ceived, When His Word|I be- lieved, In the full-|
w: claim; * For the|that is mine Through His mer-|cy di- vine; Still I sing|
w: bove; * How it|to my soul When the dark|bil- lows roll, And my heart|
w: see; * O, the|that will break, When to rap-|ture I wake, And in glo-|
 F2 [=DB][DA] [EG]2 [_Dc]>[DB] | [CA]6 ||"^Refrain" [Ec]2 | [EB]2 [EB][EB] [EB]2 [Ec][Ed] | %11
w: ness of joy I will sing.||||
w: in my joy, “Bless His name!”|come,|quick-|ly come! He is call- ing|
w: sings for joy, “God is love!”||||
w: ry with Him I shall be!||||
 [Ed][Ec] [Ec]>[EB] [Ec]2 [_Gc]2 | [GB]2 [Ee][Ge] [Ae]2 [F=d]2 | (G2 B>A G2) [EA][DB] | %14
w: |||
w: you to- day, O come to|that friend so true; He|will * * * be your|
w: |||
w: |||
 [Cc][Ec][DB][CA] [CE]2 [CF]>[EA] | [DA][DG] [DG]>[DF] [DG]2 [DB][Fc] | %16
w: ||
w: ful guide, More than all the world|be- side, And re- mem- ber He|
w: ||
w: ||
 [Fe][Fd][DF][=Dc] [Ec]2 [_DB]2 | CE D>C [CA]2 |] %18
w: ||
w: has died for you. * *||
w: ||
w: ||
V:2
 x2 | x8 | x8 | x8 | c6 x2 | x8 | x8 | F2 x6 | x6 || x2 | x8 | x8 | x8 | e6 x2 | x8 | x8 | x8 | %17
w: ||||peace|||||||||||||
w: ||||life|||O||||||faith-||||
w: ||||speaks|||||||||||||
w: ||||song|||||||||||||
 A4- x2 |] %18
w: |
w: |
w: |
w: |
V:3
 [A,,E,][A,,E,] | [A,,A,]2 [A,,E,][A,,E,] [A,,A,]2 [A,,A,]>[A,,A,] | %2
w: ~ ~|~ ~ ~ ~ ~ ~|
 [E,B,]2 [E,B,]>[E,B,] [E,B,]2 [E,G,]>[E,A,] | [E,B,]2 [E,G,][E,G,] [E,G,]2 [E,G,]2 | %4
w: ~ ev- er- more ~ ~|~ ~ ~ ~ ~|
 A,,2 (C,E,) A,2 A,[A,B,] | [A,C]2 [F,=A,][F,A,] [B,,B,]2 [D,B,][C,A,] | %6
w: ~ my * king; ~ ~|~ ~ ~ ~ ~ ~|
 [B,,B,]2 [E,G,][E,G,] A,2 [C,A,][C,B,] | [D,A,]2 [B,,A,][B,,B,] [E,B,]2 [E,G,]>[E,G,] | %8
w: ~ ~ ~ ~ ~ ~|~ ~ ~ ~ ~ ~|
 [A,,A,]6 || [A,,A,]2 | [E,G,]2 [E,G,][E,G,] [E,G,]2 [E,A,][E,B,] | %11
w: ~|~|~ ~ ~ ~ ~ ~|
 [A,,B,][A,,B,] [C,A,]>[E,G,] A,2 [=A,E]2 | [B,E]2 [G,B,][E,B,] [A,,C]2 [B,,B,]2 | %13
w: ~ ~ ~ ~ ~ ~|~ ~ ~ ~ ~|
 E,2 G,>F, E,D,[C,A,][B,,G,] | [A,,A,][A,,A,][A,,E,][A,,E,] [A,,A,]2 [A,,A,]>[C,A,] | %15
w: ~ ~ ~ ~ ~ ~ ~|~ ~ ~ ~ ~ ~ ~|
 [B,,B,][B,,B,] [B,,B,]>[B,,B,] [E,B,]2 [D,F,][C,=A,] | %16
w: ~ ~ ~ ~ ~ ~ ~|
 [B,,B,][B,,B,][D,B,][F,A,] [E,A,]2 [E,G,]2 | A,_G, [D,F,]>[D,_F,] [A,,E,]2 |] %18
w: ~ ~ has died for you.||
V:4
 x2 | x8 | x8 | x8 | A,6 A, x | x8 | x4 A,2 x2 | x8 | x6 || x2 | x8 | x4 =A,2 x2 | x8 | B,6 x2 | %14
w: ||||~ ~||~|||||~||~|
 x8 | x8 | x8 | A,,2 x4 |] %18
w: ||||

